X:1
T: Gin a Body meet a Body
C:
R:Strathspey
Q: 128
K:Bb
M:4/4
L:1/16
|:B2|FF3 F3d c3B c2d2|FF3 G3F B6G2|FF3 f3d edcB c2d2|FF3 G3F B6B2|
FF3 F3d c3B c2d2|FF3 G3F B6G2|FF3 f3d edcB c2d2|FF3 G3F B6de|
f3d B2d2 c3B c2d2|f3d B2d2 g6ab|f3d e3c d3B c2d2|FF3 G3F B6de|
f3d B2d2 c3B c2de|fedc B2df g6ab|f3g gfed g2c2 d3d|FF3 G3F B6:|
